icons/arrows-bar-out-horizontal.svg

<svg xmlns="http://www.w3.org/2000/svg" width="24" height="24" viewBox="0 0 24 24">
  <path d="M12,15 C12.5522847,15 13,15.4477153 13,16 L13,16 L13,19.585 L14.2928932,18.2928932 L14.3871006,18.2097046 C14.7793918,17.9046797 15.3466228,17.9324093 15.7071068,18.2928932 C16.0976311,18.6834175 16.0976311,19.3165825 15.7071068,19.7071068 L15.7071068,19.7071068 L12.7071068,22.7071068 L12.625449,22.7803112 C12.6225624,22.7826279 12.6196628,22.7849289 12.6128994,22.7902954 C12.6070733,22.7948255 12.6012086,22.7992821 12.5951593,22.8036865 C12.5711307,22.8215099 12.546275,22.8382813 12.5207088,22.8540045 C12.5086131,22.8613931 12.4963944,22.8685012 12.484277,22.8751242 C12.4642939,22.8862061 12.4438914,22.8966234 12.4232215,22.9063266 L12.4232215,22.9063266 L12.3710585,22.928896 C12.3515792,22.9366843 12.3317977,22.9438775 12.3121425,22.9502619 C12.2968513,22.9552713 12.2814633,22.9599023 12.2658396,22.964279 C12.2444365,22.9701664 12.2227461,22.9753602 12.2007258,22.9797599 C12.1833753,22.9832978 12.165949,22.9863719 12.1489612,22.9889807 L12.1489612,22.9889807 L12.08,22.996 L12.026,22.999 L12.019,22.999 L12,23 C11.9935938,23 11.9872016,22.9999398 11.980824,22.9998198 L11.980824,22.9998198 L11.9409686,22.9982669 C11.9308872,22.9976744 11.9208131,22.99693 11.909968,22.996002 L11.909968,22.996002 L11.8515331,22.9889822 C11.834051,22.9863719 11.8166247,22.9832978 11.7992059,22.9798348 C11.7772539,22.9753602 11.7555635,22.9701664 11.734007,22.9641549 C11.7185367,22.9599023 11.7031487,22.9552713 11.6882636,22.9504533 C11.6682023,22.9438775 11.6484208,22.9366843 11.628664,22.9287745 L11.628664,22.9287745 L11.5769009,22.9063462 C11.5561086,22.8966234 11.5357061,22.8862061 11.5159379,22.8753288 L11.5159379,22.8753288 L11.4793398,22.8539326 C11.453725,22.8382813 11.4288693,22.8215099 11.4046934,22.8036654 L11.4046934,22.8036654 L11.38,22.784 L11.3832499,22.787214 L11.378,22.783 L11.374551,22.7803112 L11.359,22.767 L11.347434,22.757792 L11.347434,22.757792 L11.2928932,22.7071068 L8.29289322,19.7071068 L8.20970461,19.6128994 C7.90467972,19.2206082 7.93240926,18.6533772 8.29289322,18.2928932 C8.68341751,17.9023689 9.31658249,17.9023689 9.70710678,18.2928932 L9.70710678,18.2928932 L11,19.585 L11,16 L11.0067277,15.8833789 C11.0644928,15.3860402 11.4871642,15 12,15 Z M3,11 L21,11 C21.5522847,11 22,11.4477153 22,12 C22,12.5128358 21.6139598,12.9355072 21.1166211,12.9932723 L21,13 L3,13 C2.44771525,13 2,12.5522847 2,12 C2,11.4871642 2.38604019,11.0644928 2.88337887,11.0067277 L3,11 Z M12,1 L12.019,1.001 L12.029,1.001 L12.081,1.003 L12.1489612,1.01101934 L12.1489612,1.01101934 C12.165949,1.01362808 12.1833753,1.01670217 12.2007258,1.02024007 C12.2227461,1.0246398 12.2444365,1.02983363 12.2658396,1.03572097 C12.2814633,1.04009773 12.2968513,1.04472872 12.3121425,1.04973809 C12.3317977,1.05612249 12.3515792,1.06331574 12.3710585,1.07110396 L12.4232215,1.09367336 L12.4232215,1.09367336 C12.4438914,1.10337664 12.4642939,1.11379392 12.484277,1.12487577 C12.4963944,1.13149883 12.5086131,1.13860692 12.5207088,1.14599545 C12.546275,1.1617187 12.5711307,1.17849009 12.5951593,1.19631351 C12.6012086,1.20071786 12.6070733,1.20517454 12.6128994,1.20970461 C12.6196628,1.21507113 12.6225624,1.2173721 12.625449,1.21968877 L12.7071068,1.29289322 L15.7071068,4.29289322 C16.0976311,4.68341751 16.0976311,5.31658249 15.7071068,5.70710678 C15.3466228,6.06759074 14.7793918,6.09532028 14.3871006,5.79029539 L14.2928932,5.70710678 L13,4.415 L13,8 C13,8.55228475 12.5522847,9 12,9 C11.4871642,9 11.0644928,8.61395981 11.0067277,8.11662113 L11,8 L11,4.415 L9.70710678,5.70710678 C9.31658249,6.09763107 8.68341751,6.09763107 8.29289322,5.70710678 C7.93240926,5.34662282 7.90467972,4.77939176 8.20970461,4.38710056 L8.29289322,4.29289322 L11.2928932,1.29289322 L11.37,1.224 L11.38,1.215 L11.4046934,1.19633458 L11.4046934,1.19633458 C11.4288693,1.17849009 11.453725,1.1617187 11.4793398,1.14606743 L11.5159379,1.12467117 L11.5159379,1.12467117 C11.5357061,1.11379392 11.5561086,1.10337664 11.5769009,1.09365378 L11.628664,1.07122549 L11.628664,1.07122549 C11.6484208,1.06331574 11.6682023,1.05612249 11.6882636,1.04954668 C11.7031487,1.04472872 11.7185367,1.04009773 11.734007,1.03584514 C11.7555635,1.02983363 11.7772539,1.0246398 11.7992059,1.02016515 C11.8166247,1.01670217 11.834051,1.01362808 11.8515331,1.0110178 L11.909968,1.00399798 L11.909968,1.00399798 C11.9208131,1.00307004 11.9308872,1.00232561 11.9409686,1.0017331 L11.980824,1.00018018 L12,1 L12,1 Z"/>
</svg>

<svg xmlns="http://www.w3.org/2000/svg" viewBox="0 0 24 24">
  <path d="M12 15a1 1 0 0 1 1 1v3.59l1.3-1.3.09-.08a1 1 0 0 1 1.32 1.5l-3 3-.08.07a3 3 0 0 1-.15.1l-.06.03-.05.02a.95.95 0 0 1-.22.06h-.13L12 23h-.09l-.06-.01a1.1 1.1 0 0 1-.22-.06l-.05-.02a1.04 1.04 0 0 1-.06-.03l-.04-.03a1.03 1.03 0 0 1-.08-.05l-.02-.02-.02-.01-.01-.01-.06-.05-3-3-.08-.1a1 1 0 0 1 1.5-1.32L11 19.6v-3.71a1 1 0 0 1 1-.88zm-9-4h18a1 1 0 0 1 .12 2H3a1 1 0 0 1-.12-2H3zm9-10h.08l.07.01a1.08 1.08 0 0 1 .22.06l.05.02a1.02 1.02 0 0 1 .2.13l.09.07 3 3a1 1 0 0 1-1.32 1.5l-.1-.08L13 4.4V8a1 1 0 0 1-2 .12v-3.7L9.7 5.7a1 1 0 0 1-1.49-1.32l.08-.1 3-3 .08-.07h.01l.02-.02.08-.05.04-.03.06-.03.05-.02a.99.99 0 0 1 .22-.06h.09l.04-.01H12z"/>
</svg>
